resources/svg/copyleft-fill.svg

<svg fill="currentColor" viewBox="0 0 24 24" xmlns="http://www.w3.org/2000/svg"><path d="M12 22C6.48 22 2 17.52 2 12C2 6.48 6.48 2 12 2C17.52 2 22 6.48 22 12C22 17.52 17.52 22 12 22ZM12 17C14.76 17 17 14.76 17 12C17 9.24 14.76 7 12 7C10.1805 7 8.58698 7.9735 7.71225 9.42771L9.42709 10.4558C9.95162 9.58339 10.9074 9 12 9C13.6575 9 15 10.3425 15 12C15 13.6575 13.6575 15 12 15C10.9069 15 9.95089 14.4162 9.42649 13.5432L7.71225 14.5723C8.58698 16.0265 10.1805 17 12 17Z"/></svg>

<svg xmlns="http://www.w3.org/2000/svg" viewBox="0 0 24 24" fill="currentColor">
    <g>
        <path fill="none" d="M0 0H24V24H0z"/>
        <path d="M12 22C6.48 22 2 17.52 2 12S6.48 2 12 2s10 4.48 10 10-4.48 10-10 10zm0-5c2.76 0 5-2.24 5-5s-2.24-5-5-5c-1.82 0-3.413.973-4.288 2.428l1.715 1.028C9.952 9.583 10.907 9 12 9c1.658 0 3 1.342 3 3s-1.342 3-3 3c-1.093 0-2.05-.584-2.574-1.457l-1.714 1.03C8.587 16.026 10.18 17 12 17z"/>
    </g>
</svg>
